X:16 
T:Scarce o'Tatties
C:Norman McLean
I:Scots Jig
Q:1/4=160
M:6/8    
L:1/8   
K:C
Aee \^efg |edB dBG |Aee \^efg |edB A2 e |
aaa gag |^fgf eAA |Aee \^efg |edB A2 e :|
aeg a2 ^f |g2 ^f eAA |aeg a2 e |ga^f e3 |
eee AAA |d^ff fee |Aee \^efg |edB A3 :|
